X: 2
T: Rolling In The Barrel
R: reel
M: 4/4
L: 1/8
K: Ador
|: E2FE BEFE | B2AF DEFD | E2FE BEFE | B2AF FEED |E2FE BEFE | B2AF DEFD | E2FE BEFE | B2AF FE~E2 ||e2fe befe | d2df a2fd | e2fe befe | dBAF FE~E2 |e2fe befe | d2df a2fd | efge fdec | dBAF FE~E2 :|


Tune 500	Setting 30069

